module-11/build/images/about/google-plus.svg

<svg xmlns="http://www.w3.org/2000/svg" width="17" height="16"><path fill-rule="evenodd" fill="#FFF" d="M1.585 3.779c0 1.287.445 2.215 1.322 2.76.718.448 1.553.514 1.986.514a3.8 3.8 0 00.248-.007s-.137.864.526 1.719h-.03c-1.15 0-4.9.232-4.9 3.209 0 3.028 3.445 3.182 4.136 3.182h.085c.008 0 .057.002.141.002.444 0 1.59-.054 2.655-.554 1.381-.647 2.081-1.773 2.081-3.346 0-1.52-1.067-2.424-1.846-3.086-.476-.403-.887-.751-.887-1.089 0-.345.3-.604.68-.932.615-.531 1.194-1.286 1.194-2.714 0-1.255-.169-2.097-1.207-2.632.108-.053.491-.093.68-.118C9.012.613 9.835.529 9.835.085v-.086H5.733C5.692 0 1.585.147 1.585 3.779zm6.622 7.762c.078 1.212-.995 2.106-2.606 2.219-1.637.115-2.984-.596-3.063-1.806-.038-.581.227-1.152.745-1.605.526-.459 1.248-.743 2.033-.799a5.12 5.12 0 01.276-.009c1.515 0 2.54.859 2.615 2zM7.136 2.95c.402 1.367-.206 2.796-1.174 3.059-.111.03-.227.046-.343.046-.887 0-1.766-.867-2.092-2.06-.182-.671-.167-1.257.042-1.82.205-.555.573-.93 1.037-1.056.111-.03.227-.045.343-.045 1.071 0 1.76.428 2.187 1.876zm6.911 2.977V3.343h-1.695v2.584H9.676v1.636h2.676v2.584h1.695V7.563h2.677V5.927h-2.677z"/></svg>

<svg 
 xmlns="http://www.w3.org/2000/svg"
 xmlns:xlink="http://www.w3.org/1999/xlink"
 width="17px" height="16px">
<path fill-rule="evenodd"  fill="rgb(255, 255, 255)"
 d="M1.585,3.779 C1.585,5.066 2.030,5.994 2.907,6.539 C3.625,6.987 4.460,7.053 4.893,7.053 C4.998,7.053 5.082,7.050 5.141,7.046 C5.141,7.046 5.004,7.910 5.667,8.765 L5.637,8.765 C4.487,8.765 0.737,8.997 0.737,11.974 C0.737,15.002 4.182,15.156 4.873,15.156 C4.927,15.156 4.958,15.156 4.958,15.156 C4.966,15.156 5.015,15.158 5.099,15.158 C5.543,15.158 6.689,15.104 7.754,14.604 C9.135,13.957 9.835,12.831 9.835,11.258 C9.835,9.738 8.768,8.834 7.989,8.172 C7.513,7.769 7.102,7.421 7.102,7.083 C7.102,6.738 7.402,6.479 7.782,6.151 C8.397,5.620 8.976,4.865 8.976,3.437 C8.976,2.182 8.807,1.340 7.769,0.805 C7.877,0.752 8.260,0.712 8.449,0.687 C9.012,0.613 9.835,0.529 9.835,0.085 L9.835,-0.001 L5.733,-0.001 C5.692,0.000 1.585,0.147 1.585,3.779 ZM8.207,11.541 C8.285,12.753 7.212,13.647 5.601,13.760 C3.964,13.875 2.617,13.164 2.538,11.954 C2.500,11.373 2.765,10.802 3.283,10.349 C3.809,9.890 4.531,9.606 5.316,9.550 C5.409,9.545 5.500,9.541 5.592,9.541 C7.107,9.541 8.132,10.400 8.207,11.541 ZM7.136,2.950 C7.538,4.317 6.930,5.746 5.962,6.009 C5.851,6.039 5.735,6.055 5.619,6.055 C4.732,6.055 3.853,5.188 3.527,3.995 C3.345,3.324 3.360,2.738 3.569,2.175 C3.774,1.620 4.142,1.245 4.606,1.119 C4.717,1.089 4.833,1.074 4.949,1.074 C6.020,1.074 6.709,1.502 7.136,2.950 ZM14.047,5.927 L14.047,3.343 L12.352,3.343 L12.352,5.927 L9.676,5.927 L9.676,7.563 L12.352,7.563 L12.352,10.147 L14.047,10.147 L14.047,7.563 L16.724,7.563 L16.724,5.927 L14.047,5.927 Z"/>
</svg>
